X:511
T: Da mai ge
N: C0346
O: China,Anhui, Dangtu
S: III, 563]
N: Der Weizen wird auf einem Brett gedroschen. Die Arbeiter wechseln
N: Wenig Verzierungen und Glissandi.
N: Phrasierung schwierig! Evtl. noch kuerzere Phrasen.
R: Arbeit; HAOZI. Weizen dreschen]
M: 2/4
L: 1/16
K: C
A2A2c2Ac | A2Accde2e4
A2Acd4 | e4d3cA4
e2c2d2edA4
A2AAc2d2 | e2c2A2G2 |
A2d2c4 | d2A2G4 |
A2c2E2EG | A3GA4 | A3GA4

@@@ Tune index: 6512
